svg/transport/train_3_line.svg

<?xml version="1.0" encoding="UTF-8"?>
<svg width="24px" height="24px" viewBox="0 0 24 24" version="1.1" xmlns="http://www.w3.org/2000/svg" xmlns:xlink="http://www.w3.org/1999/xlink">
    <title>train_3_line</title>
    <g id="页面-1" stroke="none" stroke-width="1" fill="none" fill-rule="evenodd">
        <g id="Transport" transform="translate(-528.000000, -192.000000)" fill-rule="nonzero">
            <g id="train_3_line" transform="translate(528.000000, 192.000000)">
                 <path d="M24,0 L24,24 L0,24 L0,0 L24,0 Z M12.5934901,23.257841 L12.5819402,23.2595131 L12.5108777,23.2950439 L12.4918791,23.2987469 L12.4918791,23.2987469 L12.4767152,23.2950439 L12.4056548,23.2595131 C12.3958229,23.2563662 12.3870493,23.2590235 12.3821421,23.2649074 L12.3780323,23.275831 L12.360941,23.7031097 L12.3658947,23.7234994 L12.3769048,23.7357139 L12.4804777,23.8096931 L12.4953491,23.8136134 L12.4953491,23.8136134 L12.5071152,23.8096931 L12.6106902,23.7357139 L12.6232938,23.7196733 L12.6232938,23.7196733 L12.6266527,23.7031097 L12.609561,23.275831 C12.6075724,23.2657013 12.6010112,23.2592993 12.5934901,23.257841 L12.5934901,23.257841 Z M12.8583906,23.1452862 L12.8445485,23.1473072 L12.6598443,23.2396597 L12.6498822,23.2499052 L12.6498822,23.2499052 L12.6471943,23.2611114 L12.6650943,23.6906389 L12.6699349,23.7034178 L12.6699349,23.7034178 L12.678386,23.7104931 L12.8793402,23.8032389 C12.8914285,23.8068999 12.9022333,23.8029875 12.9078286,23.7952264 L12.9118235,23.7811639 L12.8776777,23.1665331 C12.8752882,23.1545897 12.8674102,23.1470016 12.8583906,23.1452862 L12.8583906,23.1452862 Z M12.1430473,23.1473072 C12.1332178,23.1423925 12.1221763,23.1452606 12.1156365,23.1525954 L12.1099173,23.1665331 L12.0757714,23.7811639 C12.0751323,23.7926639 12.0828099,23.8018602 12.0926481,23.8045676 L12.108256,23.8032389 L12.3092106,23.7104931 L12.3186497,23.7024347 L12.3186497,23.7024347 L12.3225043,23.6906389 L12.340401,23.2611114 L12.337245,23.2485176 L12.337245,23.2485176 L12.3277531,23.2396597 L12.1430473,23.1473072 Z" id="MingCute" fill-rule="nonzero"></path>
                <path d="M17,2 C19.2091,2 21,3.79086 21,6 L21,15 C21,16.9094 19.6621,18.5063 17.8727,18.9045 L19.6,20.2 C20.0418,20.5314 20.1314,21.1582 19.8,21.6 C19.4686,22.0418 18.8418,22.1314 18.4,21.8 L14.6667,19 L9.33333,19 L5.6,21.8 C5.15817,22.1314 4.53137,22.0418 4.2,21.6 C3.86863,21.1582 3.95817,20.5314 4.4,20.2 L6.12731,18.9045 C4.33785,18.5063 3,16.9094 3,15 L3,6 C3,3.79086 4.79086,2 7,2 L17,2 Z M19,12 L5,12 L5,15 C5,16.0543909 5.81587733,16.9181678 6.85073759,16.9945144 L7,17 L17,17 C18.0543909,17 18.9181678,16.18415 18.9945144,15.1492661 L19,15 L19,12 Z M12,13 C12.8284,13 13.5,13.6716 13.5,14.5 C13.5,15.3284 12.8284,16 12,16 C11.1716,16 10.5,15.3284 10.5,14.5 C10.5,13.6716 11.1716,13 12,13 Z M19,8 L5,8 L5,10 L19,10 L19,8 Z M17,4 L7,4 C5.94563773,4 5.08183483,4.81587733 5.00548573,5.85073759 L5,6 L19,6 C19,4.94563773 18.18415,4.08183483 17.1492661,4.00548573 L17,4 Z" id="形状" fill="#09244B"></path>
            </g>
        </g>
    </g>
</svg>

<svg xmlns="http://www.w3.org/2000/svg" width="24" height="24"><g fill="none" fill-rule="nonzero"><path d="M24 0v24H0V0h24ZM12.593 23.258l-.011.002-.071.035-.02.004-.014-.004-.071-.035c-.01-.004-.019-.001-.024.005l-.004.01-.017.428.005.02.01.013.104.074.015.004.012-.004.104-.074.012-.016.004-.017-.017-.427c-.002-.01-.009-.017-.017-.018Zm.265-.113-.013.002-.185.093-.01.01-.003.011.018.43.005.012.008.007.201.093c.012.004.023 0 .029-.008l.004-.014-.034-.614c-.003-.012-.01-.02-.02-.022Zm-.715.002a.023.023 0 0 0-.027.006l-.006.014-.034.614c0 .012.007.02.017.024l.015-.002.201-.093.01-.008.004-.011.017-.43-.003-.012-.01-.01-.184-.092Z"/><path fill="#09244B" d="M17 2a4 4 0 0 1 4 4v9a4.002 4.002 0 0 1-3.127 3.904L19.6 20.2a1 1 0 0 1-1.2 1.6L14.667 19H9.333L5.6 21.8a1 1 0 1 1-1.2-1.6l1.727-1.296A4.001 4.001 0 0 1 3 15V6a4 4 0 0 1 4-4h10Zm2 10H5v3a2 2 0 0 0 1.85 1.995L7 17h10a2 2 0 0 0 1.995-1.85L19 15v-3Zm-7 1a1.5 1.5 0 1 1 0 3 1.5 1.5 0 0 1 0-3Zm7-5H5v2h14V8Zm-2-4H7a2 2 0 0 0-1.995 1.85L5 6h14a2 2 0 0 0-1.85-1.995L17 4Z"/></g></svg>
